packages/foundations/assets/icons/functional/images/layout/grid_20_filled.svg

<svg width="20" height="20" viewBox="0 0 20 20" fill="none" xmlns="http://www.w3.org/2000/svg">
<g clip-path="url(#clip0_2209_4235)">
<path fill-rule="evenodd" clip-rule="evenodd" d="M16.001 8.99531H11.999C11.4472 8.99531 11 8.54806 11 7.99635V3.99427C11 3.72933 11.1052 3.47524 11.2926 3.2879C11.4799 3.10056 11.734 2.99531 11.999 2.99531H16.001C16.5528 2.99531 17 3.44256 17 3.99427V7.99635C17 8.54806 16.5528 8.99531 16.001 8.99531ZM16.001 17.0047H11.999C11.4472 17.0047 11 16.557 11 16.0047V12.0016C11 11.7363 11.1052 11.482 11.2926 11.2945C11.4799 11.1069 11.734 11.0016 11.999 11.0016H16.001C16.266 11.0016 16.5201 11.1069 16.7074 11.2945C16.8948 11.482 17 11.7363 17 12.0016V16.0078C16.9983 16.5589 16.5515 17.0047 16.001 17.0047ZM7.99792 8.99531H3.99896C3.44725 8.99531 3 8.54805 3 7.99634V3.99427C3 3.44256 3.44725 2.99531 3.99896 2.99531H8.00104C8.55275 2.99531 9 3.44256 9 3.99427V7.99634C9 8.26183 8.89433 8.51639 8.70631 8.70382C8.51829 8.89125 8.2634 8.99613 7.99792 8.99531ZM7.99792 17.0047H3.99896C3.44725 17.0047 3 16.557 3 16.0047V12.0016C3 11.4493 3.44725 11.0016 3.99896 11.0016H8.00104C8.26598 11.0016 8.52007 11.1069 8.70741 11.2945C8.89475 11.482 9 11.7363 9 12.0016V16.0078C8.99917 16.273 8.89313 16.5271 8.70521 16.714C8.51728 16.901 8.26286 17.0055 7.99792 17.0047Z" fill="#1A1C1F"/>
</g>
<defs>
<clipPath id="clip0_2209_4235">
<rect width="20" height="20" fill="white"/>
</clipPath>
</defs>
</svg>

<svg xmlns="http://www.w3.org/2000/svg" width="20" height="20" fill="none"><g clip-path="url(#a)"><path fill="#1A1C1F" fill-rule="evenodd" d="M16.001 8.995h-4.002A1 1 0 0 1 11 7.996V3.994a1 1 0 0 1 .999-.999h4.002c.552 0 .999.448.999 1v4.001a1 1 0 0 1-.999 1m0 8.01h-4.002a1 1 0 0 1-.999-1v-4.003a1 1 0 0 1 .999-1h4.002a1 1 0 0 1 .999 1v4.006a1 1 0 0 1-.999.997m-8.003-8.01H3.999A1 1 0 0 1 3 7.996V3.994c0-.551.447-.999.999-.999h4.002c.552 0 .999.448.999 1v4.001a1 1 0 0 1-1.002 1m0 8.01H3.999a1 1 0 0 1-.999-1v-4.003a1 1 0 0 1 .999-1h4.002a1 1 0 0 1 .999 1v4.006a1 1 0 0 1-1.002.997" clip-rule="evenodd"/></g><defs><clipPath id="a"><path fill="#fff" d="M0 0h20v20H0z"/></clipPath></defs></svg>
